X: 81
T: No_42_He_Carries_the_War_Bundle.krn
N: Derived from No_42_He_Carries_the_War_Bundle.krn
%%abc-version 2.0
%%abcx-abcm2ps-target-version 5.9.1 (29 Sep 2008)
%%abc-creator hum2abc beta
%%abcx-conversion-date 2019/03/15 08:35:44
%%humdrum-veritas 1436021990
%%humdrum-veritas-data 1433937112
%%linebreak <none>
%%barnumbers 0
L: 1/8
M: 2/4
K: C clef=bass
[K:clef=bass][M:2/4]z2z z/ D/ | 
D2D/C3/ | 
D2ED | 
CC C3/G,/ | 
G,2A,/A,3/ | 
G, z A,A, | 
G,G, G, z/ C/ | 
C2C/A,3/ | 
C2DC | 
A,A,A,2 | 
G,2A,/A,3/ | 
G, z A,A, | 
G,G,G,2 | 
D,2C,/C,3/ | 
D, z E,D, | 
C,C,C,2 | 
G,,2A,,/A,,3/ | 
G,, z A,,A,, | 
G,,G,,G,,2 | 
G,,2G,,2 |]  



